X:1
T:Lágrima
T:Lágrima
T:Arranged for Guitar Duo
T:Francisco Tárrega
T:Arr: J. J. Olson
T:by Mutopia Project - Placed in the public domain by the typesetter Ð fre e to distribute, modify, and perform ǀ
C:Francisco Tárrega
Z:by Mutopia Project - Placed in the public domain by the typesetter Ð fre
Z:e to distribute, modify, and perform
Z:ǀ
%%score [ ( 1 2 ) ( 3 4 ) ]
L:1/8
Q:1/4=120
M:3/4
K:E
V:1 treble-8 nm="Chitarra I"
V:2 treble-8 
V:3 treble-8 nm="Chitarra II"
V:4 treble-8 
V:1
"^Andante""^IV" !1!g2 !2!a2 !4!b2 |"^II" f6 |"^IV" g2 a2 b2 | !1!f6 |"^IX" !4!e'2 !3!d'2 !1!c'2 | %5
"^VII" b!4!g !2!c!1!e!4!f!1!a |"^IV" g!2!e !3!c!4!f- f"^II"!1!!4![Ad] |"^I" !1!!0![Ge]4 z2!fine! :: %8
[K:G]"^II" g"^VII"c' be fg | e6 | z"^VIII" (e' z) (c' z)"^VII" (a | [^df]4) z"^II" f | %12
"^III" ^g2"^V" a2"^VII" b2 |"^VII" d'c'bagf | e2"^I" f2 B2 | [Ge]4 z2!D.C.! :| %16
V:2
 g!0!B aB bB | x6 | gB aB [Bb] z | x6 | x6 | !1!b2 x4 | !1!g2 x4 | x6 ::[K:G] z2 z2 ^d2 | %9
 z"^II" c BA GA | B2 z4 | x6 | ^gB aB bB | x6 | eB fc BA | x6 :| %16
V:3
"^I" !2!D2 !4!F2 !1!G2 | D!0!B !3!AB B,B | E2 F2 G2 | DB AB B,B |"^(I)" !4!c!0!e!0!Be!2!A!3!f | %5
 !0!B2"^II" !1!c4 | !4!B2 !3!^A2"^(b_II)" !1!B,2 | !1!E2 !0!E,2 z2 ::[K:G]"^VII" [E,B]4 [B,A]2 | %9
 z"^IV" A GF EF | [E,G]2 A2 F2 | z B (cB) B2 |"^(IV)" E2 F2 G2 | A,6 | %14
"^III" G,G"^IV" A,A"^VI" B,^D | E2 E,2 z2 :| %16
V:4
 x6 | !1!D4 !2!B,2 | x6 | D4 B,2 | c2 B2 A2 | x6 | x6 | x6 ::[K:G] x6 | E,6 | x6 | B,6 | x6 | x6 | %14
 G,2 A,2 B,2 | x6 :| %16

